X:1
T:Title
%%score { ( 1 4 5 ) | ( 2 3 ) }
L:1/8
Q:1/4=100
M:4/4
K:A
V:1 treble nm="Grand Piano"
V:4 treble 
V:5 treble 
V:2 bass 
V:3 bass 
V:1
 [Ec]2 [CEA]>[DEB] A .G3 | d2 F>G [CEA]4 | [Ec]2 [CEA]>[DEB] [CEA] .[B,EG]3 | %3
w: Flora~H.~Cassel * * * *|||
 [B,^DB]2 [B,DG][A,DF] E4 | E>F GE [CA] .[Ec]3 | E>F GA B4 | [Ec]2 [CEA]>[DEB] [CEA] .[B,EG]3 | %7
w: ||||
 e>d cB A4 |[M:6/8] z c2- c2 z | z2 G- G3 | z d2- d2 z | z2 e- e3 | z c2- c2 z | z e2- e2 z | %14
w: |||||||
 z c2- c2 z | z A2- A3- | A3 z3 |] %17
w: |||
V:2
 [A,,A,]2 A,,>A,, [E,CE] .[E,B,E]3 | [E,G,E]2 [E,A,E]>[E,B,E] A,,4 | [A,,A,]2 A,,>A,, E, .E,3 | %3
 z z/ A/ B,,B,, [E,G,]4 | D->[E,A,D] [E,B,D][E,G,D] [A,,A,] .[A,,A,]3 | %5
 D->[E,A,D] [E,B,D][E,CE] [E,DE]4 | [A,,A,]2 A,,>A,, E, .E,3 | [E,B,]2 [E,A,E][E,DE] [A,CE]4 | %8
[M:6/8] [A,,A,][A,CE][A,C] [A,C][A,C][A,C] | [A,CE][E,DE][E,DE] [E,D] [E,D]2 | %10
 [E,D][E,B,E][E,B,] [E,B,][E,B,][E,A,E] | [D,A,][C,A,][C,A,] [C,A,] [C,A,]2 | %12
 [B,,G,][A,,A,][A,,A,] [A,,A,][A,,A,][B,,G,] | [C,A,][D,A,][D,A,] [D,A,][D,A,][D,A,] | %14
 [D,A,][E,A,E][E,A,] [E,A,] [E,G,]2 | [E,G,D][A,,A,][A,,A,] [A,,A,] [A,,A,]2- | [A,,A,]3 z3 |] %17
V:3
 x8 | x8 | x8 | B,,2 z2 z4 | [E,G,]2 z2 z4 | [E,G,]2 z2 z4 | x8 | x8 |[M:6/8] x6 | x6 | x6 | x6 | %12
 x6 | x6 | x6 | x6 | x6 |] %17
V:4
 x8 | x8 | x8 | x8 | x8 | x8 | x8 | G2 z2 z4 |[M:6/8] .[CE]2 E EEE | B .A2 E E2 | .E2 E EEc | %11
 [FB]AA A A2 | [Ed]EE EE[Ed] | [Ee]FF FFF | .[Fd]2 E .E2 E | BCC [DF] [CE]2- | [CE]3 z3 |] %17
V:5
 x8 | x8 | x8 | x8 | x8 | x8 | x8 | x8 |[M:6/8] x6 | x6 | x6 | x6 | x6 | x6 | z3 z D2 | x6 | x6 |] %17

